X: 1
T: Atholl House
C: D.Dow
R: strathspey
B: RSCDS 10-4
Z: 2007 John Chambers <jc:trillian.mit.edu>
M: C
L: 1/16
K: D
d2 \
| "D"AD3 F3D AD3 "G"BAGF | "D"AD3 F3D "A7"CE3 E3d \
| "D"AD3 F3D AD3 d3A | "G(Bm)"BAGF "A7"A3A, "G"B,D3 "D"D2 :|
A2 \
| "D"d4 fedc d3A FA3 | "D"D3A "Bm"BAGF "Em"GE3 "A7"E3A \
| "D"d4 fed2 Ad3 F3A | "G"Bcd2 "A7"cde2 "D"Ad3 d2 |]
A2 \
| "D"d3A fd3 "A7"c3A ge3 | "D"f3d Ad3 "A"ce3 e3g \
| "D"f3d Ad3 "Em"B3G EG3 | "D"FD3 "F#m"A3A, "G"B,D3 "D"D2 |]
